X: 9
T:Megan a Gollod ei Gardas
T:Margaret that Lost her Garter
M:3/4
L:1/8
Q:150
C:Trad
S:51 Welsh Airs
R:Waltz
A:Wales
H:From a facsimile c.1840: A Choice Collection of Fifty-One Welsh Airs
H:adapted for The Harp, Piano-Forte, Harpsichord,
H:Violin, or Flute by Edward Jones
H:"Harper to His Late Majesty King George IV, when
H:Prince of Wales".
Z:brian_martin12345@yahoo.com
K:F
"Majestic"
F2F2F2|E3DC2|F2F>AG>B|{AB}A2GF2|B4B2|A4A2|G2E2F2|G6:||!
f2fagf|e2egfe|d2dfed|c4c2|f2fagf|e2egfe|d2dfed|edc2B2|!
(A2f2){cd}c2|(A2f2){cd}c2|A2f2{cd}c2|BdcBA2|
(GABcdB)|c2B2A2|G>AF2{FDF}E|F6:||

